Pods/ProtonCore-UIFoundations/libraries/UIFoundations/Sources/Assets.xcassets/Images/IconSet/ic-arrow-up-from-square.imageset/ic-arrow-up-from-square.svg

<svg width="24" height="24" viewBox="0 0 24 24" fill="none" xmlns="http://www.w3.org/2000/svg">
<path d="M7.72114 4.93113C7.42744 4.63905 7.42612 4.16418 7.7182 3.87047L11.2555 0.313507C11.666 -0.0992935 12.334 -0.0992945 12.7445 0.313507L16.2818 3.87047C16.5739 4.16418 16.5726 4.63905 16.2789 4.93113C15.9852 5.22321 15.5103 5.22189 15.2182 4.92818L12.75 2.44625V13.4494C12.75 13.8636 12.4142 14.1994 12 14.1994C11.5858 14.1994 11.25 13.8636 11.25 13.4494V2.44625L8.7818 4.92819C8.48972 5.22189 8.01485 5.22321 7.72114 4.93113Z" fill="#0C0C14"/>
<path d="M4.5 9.66602C4.5 8.8376 5.17157 8.16602 6 8.16602H9.09976V6.66602H6C4.34315 6.66602 3 8.00917 3 9.66602V19.4953C3 21.1522 4.34315 22.4953 6 22.4953H18C19.6569 22.4953 21 21.1522 21 19.4953V9.66602C21 8.00917 19.6569 6.66602 18 6.66602H15V8.16602H18C18.8284 8.16602 19.5 8.83759 19.5 9.66602V19.4953C19.5 20.3237 18.8284 20.9953 18 20.9953H6C5.17157 20.9953 4.5 20.3237 4.5 19.4953V9.66602Z" fill="#0C0C14"/>
</svg>

<svg xmlns="http://www.w3.org/2000/svg" width="24" height="24" viewBox="0 0 24 24">
  <g class="ic-arrow-up-from-square">
    <g class="Icon">
      <path d="M7.721 4.931a.75.75 0 0 1-.003-1.06L11.255.313a1.05 1.05 0 0 1 1.49 0l3.537 3.556a.75.75 0 1 1-1.064 1.058L12.75 2.446V13.45a.75.75 0 0 1-1.5 0V2.446L8.782 4.928a.75.75 0 0 1-1.06.003Z"/>
      <path d="M4.5 9.666a1.5 1.5 0 0 1 1.5-1.5h3.1v-1.5H6a3 3 0 0 0-3 3v9.83a3 3 0 0 0 3 3h12a3 3 0 0 0 3-3v-9.83a3 3 0 0 0-3-3h-3v1.5h3a1.5 1.5 0 0 1 1.5 1.5v9.83a1.5 1.5 0 0 1-1.5 1.5H6a1.5 1.5 0 0 1-1.5-1.5v-9.83Z"/>
    </g>
  </g>
</svg>
